build/svg/cmd/32/dataimport.svg

<?xml version="1.0" encoding="UTF-8" standalone="no"?>
<svg
   xmlns:dc="http://purl.org/dc/elements/1.1/"
   xmlns:cc="http://creativecommons.org/ns#"
   xmlns:rdf="http://www.w3.org/1999/02/22-rdf-syntax-ns#"
   xmlns:svg="http://www.w3.org/2000/svg"
   xmlns="http://www.w3.org/2000/svg"
   xmlns:sodipodi="http://sodipodi.sourceforge.net/DTD/sodipodi-0.dtd"
   xmlns:inkscape="http://www.inkscape.org/namespaces/inkscape"
   viewBox="0 0 32 32"
   version="1.1"
   id="svg4"
   sodipodi:docname="dataimport.svg"
   inkscape:version="0.92.5 (2060ec1f9f, 2020-04-08)"
   inkscape:export-filename="/home/jupiter007/Libreoffice yaru theme fullcolor/build/cmd/32/dataimport.png"
   inkscape:export-xdpi="95"
   inkscape:export-ydpi="95">
  <metadata
     id="metadata10">
    <rdf:RDF>
      <cc:Work
         rdf:about="">
        <dc:format>image/svg+xml</dc:format>
        <dc:type
           rdf:resource="http://purl.org/dc/dcmitype/StillImage" />
        <dc:title />
      </cc:Work>
    </rdf:RDF>
  </metadata>
  <defs
     id="defs8" />
  <sodipodi:namedview
     pagecolor="#ffffff"
     bordercolor="#666666"
     borderopacity="1"
     objecttolerance="10"
     gridtolerance="10"
     guidetolerance="10"
     inkscape:pageopacity="0"
     inkscape:pageshadow="2"
     inkscape:window-width="1920"
     inkscape:window-height="1011"
     id="namedview6"
     showgrid="true"
     inkscape:zoom="11.313709"
     inkscape:cx="3.3706896"
     inkscape:cy="21.322819"
     inkscape:window-x="0"
     inkscape:window-y="32"
     inkscape:window-maximized="1"
     inkscape:current-layer="svg4"
     showguides="false">
    <inkscape:grid
       type="xygrid"
       id="grid817" />
  </sodipodi:namedview>
  <path
     sodipodi:nodetypes="cccscsccccccccscscccccc"
     inkscape:connector-curvature="0"
     id="path4237-1"
     d="M 7.994141,4.999418 C 6.735941,5.013918 5.81525,4.968814 5.0625,5.3841836 4.68613,5.5918436 4.389269,5.9435705 4.224609,6.38223 4.059939,6.8209 4,7.341818 4,7.999418 V 9.4877 24.000001 C 4,24.65761 4.0599,25.178579 4.224609,25.617189 4.389289,26.0558 4.68614,26.405713 5.0625,26.613281 5.81522,27.028412 6.736041,26.984931 7.994141,27 h 0.002 14.006625 0.0039 c 1.25819,-0.0145 2.178891,0.0306 2.931641,-0.384766 0.37637,-0.20766 0.673221,-0.559386 0.837891,-0.998045 0.164539,-0.438671 0.145646,-0.964338 0.224618,-1.617188 V 9.466216 7.999418 c 0,-0.6576 -0.0599,-1.178577 -0.224609,-1.617188 C 25.611527,5.9436305 25.314676,5.5936967 24.938316,5.3861368 24.185546,4.9710068 23.264715,5.014498 22.006625,4.999418 h -0.002 H 7.998 Z"
     style="font-style:normal;font-variant:normal;font-weight:normal;font-stretch:normal;font-size:15px;line-height:125%;font-family:Ubuntu;-inkscape-font-specification:Ubuntu;text-align:center;letter-spacing:0px;word-spacing:0px;writing-mode:lr-tb;text-anchor:middle;display:inline;opacity:0.6;fill:#000000;fill-opacity:1;stroke:none;stroke-width:0.99980211" />
  <path
     inkscape:connector-curvature="0"
     id="path1993"
     d="M 12.983369,6.026603 C 11.426788,6.037403 7.873379,6.014853 6.323428,6.065373 5.862199,6.108043 5.30724,6.271792 5.168088,6.77534 4.949094,7.410686 5.059674,8.109127 5.022292,8.757264 c -0.0078,2.297085 -0.02297,13.596428 0.02152,15.88578 0.0391,0.46193 0.202551,1.012666 0.698756,1.163666 0.632456,0.225082 1.284144,0.12274 1.935974,0.154299 1.424235,0.0068 8.851329,0.01102 10.277186,0.01131 1.704531,3.49e-4 3.408388,-0.005 5.10719,-0.01851 0.511911,-0.01201 1.183699,0.01993 1.584745,-0.405191 0.421097,-0.539783 0.287073,-1.268021 0.322745,-1.903788 0.01187,-2.444322 0.02769,-13.911094 -0.0219,-16.356794 C 24.899228,6.885995 24.778516,6.425083 24.373369,6.24356 23.7052,5.9494629 22.947164,6.075541 22.247448,6.037988 c -1.754407,-0.0118 -7.50964,-0.01248 -9.264079,-0.01139 z"
     style="opacity:1;vector-effect:none;fill:#ffffff;fill-opacity:1;stroke:none;stroke-width:1;stroke-linecap:round;stroke-linejoin:bevel;stroke-miterlimit:4;stroke-dasharray:none;stroke-dashoffset:0;stroke-opacity:1"
     sodipodi:nodetypes="cccccccsccccccc" />
  <path
     inkscape:export-ydpi="96"
     inkscape:export-xdpi="96"
     inkscape:export-filename="/home/stuart/yaru/icons/Suru/32x32/legacy/document-export.png"
     sodipodi:nodetypes="cccccccc"
     id="path829"
     d="m 28.99994,17.999709 h -8 v 4 c 0,0 -4,-2 -9,-6 5,-4 9,-6 9,-6 v 4 h 8 z"
     style="display:inline;opacity:0.6;fill:#000000;fill-opacity:1;stroke:#000000;stroke-width:2;stroke-linecap:round;stroke-linejoin:round;stroke-miterlimit:4;stroke-dasharray:none;stroke-dashoffset:0;stroke-opacity:1;enable-background:new"
     inkscape:connector-curvature="0" />
  <path
     inkscape:connector-curvature="0"
     style="display:inline;opacity:1;fill:#aee3f8;fill-opacity:1;stroke:none;stroke-width:1;stroke-linecap:round;stroke-linejoin:round;stroke-miterlimit:4;stroke-dasharray:none;stroke-dashoffset:0;stroke-opacity:0.88059698;enable-background:new"
     d="m 28.99994,17.999709 h -8 v 4 c 0,0 -4,-2 -9,-6 5,-4 9,-6 9,-6 v 4 h 8 z"
     id="rect11148-3-5"
     sodipodi:nodetypes="cccccccc"
     inkscape:export-filename="/home/stuart/yaru/icons/Suru/32x32/legacy/document-export.png"
     inkscape:export-xdpi="96"
     inkscape:export-ydpi="96" />
</svg>

<svg xmlns="http://www.w3.org/2000/svg" viewBox="0 0 32 32"><path d="M7.994 5c-1.258.014-2.179-.031-2.931.384a1.88 1.88 0 00-.838.998C4.06 6.821 4 7.342 4 8V24c0 .658.06 1.179.225 1.617.164.439.461.789.838.996.752.415 1.673.372 2.931.387h14.013c1.258-.015 2.179.03 2.931-.385a1.88 1.88 0 00.838-.998c.165-.438.146-.964.225-1.617V7.999c0-.657-.06-1.178-.225-1.617a1.875 1.875 0 00-.838-.996c-.752-.415-1.673-.372-2.931-.387H7.998z" style="line-height:125%;-inkscape-font-specification:Ubuntu;text-align:center" font-weight="400" font-size="15" font-family="Ubuntu" letter-spacing="0" word-spacing="0" text-anchor="middle" opacity=".6"/><path d="M12.983 6.027c-1.556.01-5.11-.012-6.66.038-.46.043-1.016.207-1.155.71-.219.636-.108 1.334-.146 1.982-.008 2.297-.023 13.597.022 15.886.039.462.202 1.013.699 1.164.632.225 1.284.122 1.936.154 1.424.007 8.85.011 10.277.011 1.704 0 3.408-.005 5.107-.018.512-.012 1.184.02 1.585-.405.42-.54.287-1.268.322-1.904.012-2.444.028-13.911-.021-16.357-.05-.402-.17-.863-.576-1.044-.668-.295-1.426-.168-2.126-.206-1.754-.012-7.51-.012-9.264-.011z" fill="#fff"/><path d="M29 18h-8v4s-4-2-9-6c5-4 9-6 9-6v4h8z" opacity=".6" stroke="#000" stroke-width="2" stroke-linecap="round" stroke-linejoin="round"/><path d="M29 18h-8v4s-4-2-9-6c5-4 9-6 9-6v4h8z" fill="#aee3f8"/></svg>
